dist/assets/img/svg/logo-grey.svg

<svg width="242" height="62" viewBox="0 0 242 62" fill="none" xmlns="http://www.w3.org/2000/svg">
<path d="M30.5155 0C13.6637 0 0 13.7027 0 30.6084C0 47.514 13.6637 61.2167 30.5155 61.2167C47.3672 61.2167 61.0309 47.5114 61.0309 30.6084C61.0309 13.7027 47.3698 0 30.5155 0ZM30.5155 54.5615C17.3283 54.5615 6.63503 43.8383 6.63503 30.6084C6.63503 17.3784 17.3283 6.65524 30.5155 6.65524C43.7026 6.65524 54.3959 17.3758 54.3959 30.6084C54.3959 43.8409 43.7052 54.5615 30.5155 54.5615ZM30.5155 17.4615C23.277 17.4615 17.4085 23.3505 17.4085 30.6084C17.4085 37.8663 23.277 43.7552 30.5155 43.7552C37.7539 43.7552 43.6198 37.8689 43.6198 30.6084C43.6198 23.3479 37.7539 17.4615 30.5155 17.4615ZM30.5155 40.4535C25.095 40.4535 20.7002 36.0453 20.7002 30.6084C20.7002 25.1714 25.095 20.7632 30.5155 20.7632C35.9359 20.7632 40.3282 25.1688 40.3282 30.6084C40.3282 36.0479 35.9359 40.4535 30.5155 40.4535ZM30.5155 8.34372C18.258 8.34372 8.31839 18.311 8.31839 30.6084C8.31839 42.9057 18.258 52.873 30.5155 52.873C42.7729 52.873 52.7125 42.9057 52.7125 30.6084C52.7125 18.311 42.7755 8.34372 30.5155 8.34372ZM37.7513 13.1286C38.4272 11.9545 39.9241 11.5518 41.0947 12.2298C42.2679 12.9078 42.6667 14.4093 41.9908 15.5834C41.3149 16.7576 39.818 17.1576 38.6474 16.4822C37.4768 15.8016 37.0754 14.3002 37.7513 13.1286ZM45.7382 30.6084C45.7382 39.043 38.9219 45.8801 30.5129 45.8801C22.1038 45.8801 15.2875 39.043 15.2875 30.6084C15.2875 22.1737 22.1038 15.3367 30.5129 15.3367C38.9219 15.3367 45.7382 22.1737 45.7382 30.6084ZM30.5155 9.38539C31.8673 9.38539 32.9628 10.4842 32.9628 11.8402C32.9628 13.1962 31.8673 14.295 30.5155 14.295C29.1636 14.295 28.0681 13.1962 28.0681 11.8402C28.0681 10.4842 29.1636 9.38539 30.5155 9.38539ZM19.9336 12.2298C21.1042 11.5492 22.6011 11.9545 23.277 13.126C23.9529 14.3028 23.5515 15.8016 22.3809 16.4796C21.2104 17.1576 19.7135 16.755 19.0375 15.5808C18.3616 14.4093 18.763 12.9052 19.9336 12.2272V12.2298ZM12.1875 19.9995C12.8635 18.8227 14.3604 18.4227 15.5335 19.1007C16.7041 19.7787 17.1029 21.2801 16.427 22.4543C15.7511 23.6284 14.2542 24.0311 13.0836 23.3531C11.913 22.6751 11.5116 21.1736 12.1875 19.9995ZM9.35172 30.6136C9.35172 29.2576 10.4472 28.1588 11.7991 28.1588C13.1509 28.1588 14.2464 29.2602 14.2464 30.6136C14.2464 31.9669 13.1509 33.0684 11.7991 33.0684C10.4472 33.0684 9.35172 31.9695 9.34913 30.6136H9.35172ZM15.5309 42.1264C14.3578 42.8044 12.8635 42.4018 12.1875 41.2276C11.5116 40.0535 11.913 38.552 13.0836 37.8741C14.2542 37.1961 15.7511 37.5987 16.427 38.7728C17.1029 39.947 16.7015 41.4484 15.5335 42.1264H15.5309ZM23.2744 48.0985C22.5985 49.27 21.1016 49.6727 19.931 48.9947C18.7604 48.3167 18.359 46.8152 19.0323 45.6411C19.7109 44.4669 21.2052 44.0643 22.3783 44.7423C23.5489 45.4203 23.9503 46.9191 23.2744 48.0959V48.0985ZM30.5129 51.8391C29.161 51.8391 28.0655 50.7403 28.0655 49.3843C28.0655 48.0284 29.161 46.9295 30.5129 46.9295C31.8647 46.9295 32.9602 48.0284 32.9602 49.3843C32.9602 50.7403 31.8647 51.8391 30.5129 51.8391ZM41.0921 48.9973C39.9216 49.6753 38.4247 49.2726 37.7487 48.1011C37.0728 46.9243 37.4742 45.4255 38.6448 44.7475C39.8154 44.0669 41.3123 44.4721 41.9882 45.6437C42.6641 46.8178 42.2627 48.3219 41.0921 48.9973ZM48.8408 41.2276C48.1623 42.4044 46.6654 42.807 45.4948 42.129C44.3242 41.451 43.9254 39.9496 44.5987 38.7754C45.2746 37.6013 46.7715 37.1987 47.9421 37.8767C49.1127 38.5546 49.5141 40.0587 48.8408 41.2302V41.2276ZM51.674 30.6162C51.674 31.9721 50.5785 33.071 49.2267 33.071C47.8774 33.071 46.7793 31.9721 46.7793 30.6162C46.7793 29.2602 47.8748 28.1614 49.2267 28.1614C50.5785 28.1614 51.674 29.2628 51.674 30.6162ZM48.8382 20.0021C49.5167 21.1762 49.1127 22.6777 47.9421 23.3583C46.7715 24.0337 45.2746 23.631 44.5987 22.4569C43.9228 21.2827 44.3242 19.7813 45.4948 19.1033C46.6654 18.4253 48.1623 18.8279 48.8382 20.0021ZM162.535 47.3192V30.7798C162.535 24.1635 159.238 20.8567 152.642 20.8567H142.749V11.2297H136.153V47.314H142.749V27.4678H152.642C154.841 27.4678 155.939 28.5692 155.939 30.7746V47.314H162.535V47.3192ZM208.421 11.2297H201.825V20.8515H195.48V27.4678H201.825V47.314H208.421V27.4678H212.575L215.509 20.8515H208.421V11.2297ZM241.997 20.8515H220.787L217.853 27.4678H231.625L215.618 40.6977V47.314H242V40.6977H225.993L242 27.4678V20.8515H241.997ZM91.7898 25.6624H77.4009C75.0028 25.6624 73.8037 24.4597 73.8037 22.0542C73.8037 19.6488 75.0028 18.4461 77.4009 18.4461H96.3426L99.5436 11.2297H77.4009C70.2065 11.2297 66.6093 14.8379 66.6093 22.0542C66.6093 29.2706 70.2065 32.8787 77.4009 32.8787H91.7898C94.1879 32.8787 95.387 34.0815 95.387 36.4869C95.387 38.8923 94.1879 40.0951 91.7898 40.0951H66.2934V47.3114H91.7898C98.9842 47.3114 102.581 43.7032 102.581 36.4869C102.581 29.2706 98.9842 25.6624 91.7898 25.6624ZM132.561 40.6977H116.072C113.873 40.6977 112.775 39.5963 112.775 37.3909V30.7746C112.775 28.5692 113.873 27.4678 116.072 27.4678H129.756L132.561 21.145V20.8515H116.072C109.475 20.8515 106.179 24.1583 106.179 30.7746V37.3909C106.179 44.0072 109.475 47.314 116.072 47.314H132.561V40.6977ZM182.624 20.8515H170.512L167.577 27.4678H182.624C184.823 27.4678 185.921 28.551 185.921 30.7149V30.7746H174.409C168.893 30.7746 166.135 33.4814 166.135 38.8923C166.135 44.3033 168.893 47.3114 174.409 47.3114H192.517V30.772C192.517 24.1558 189.22 20.8489 182.624 20.8489V20.8515ZM185.921 40.6977H174.409C173.29 40.6977 172.731 40.1366 172.731 39.0144C172.731 37.8922 173.29 37.3909 174.409 37.3909H185.921V40.6977Z" fill="url(#paint0_linear_1110_182)"/>
<path d="M69.5901 57.0732H71.9054V57.3355C71.9054 57.9252 71.8459 58.3746 71.7293 58.6889C71.6128 59.0032 71.3978 59.2266 71.0922 59.3591C70.784 59.4942 70.336 59.5591 69.7429 59.5591C69.2975 59.5591 68.9375 59.5202 68.6656 59.4396C68.3937 59.3591 68.1787 59.2162 68.0207 59.0058C67.8628 58.7954 67.7488 58.5019 67.6815 58.12C67.6141 57.7382 67.5805 57.2264 67.5805 56.5874C67.5805 55.9484 67.6141 55.4366 67.6815 55.0496C67.7488 54.6651 67.8602 54.3638 68.0182 54.1482C68.1761 53.9352 68.3885 53.7845 68.6578 53.7014C68.9272 53.6182 69.2897 53.5767 69.7404 53.5767C70.3516 53.5767 70.8022 53.6182 71.0948 53.7014C71.3849 53.7845 71.5869 53.9274 71.6956 54.13C71.8044 54.3352 71.8743 54.6469 71.9054 55.0677H72.6875C72.6409 54.4937 72.5477 54.0599 72.4052 53.7637C72.2628 53.4676 71.9909 53.2442 71.5843 53.0961C71.1803 52.948 70.5639 52.8727 69.7429 52.8727C69.1421 52.8727 68.6526 52.9351 68.2719 53.0597C67.8938 53.1844 67.596 53.3871 67.3759 53.6702C67.1558 53.9533 67.0004 54.3274 66.9097 54.7976C66.8165 55.2678 66.7725 55.8652 66.7725 56.59C66.7725 57.3147 66.8165 57.9174 66.9071 58.3824C66.9978 58.8474 67.1506 59.2162 67.3655 59.4916C67.5805 59.7669 67.8809 59.967 68.2642 60.0864C68.6475 60.2085 69.1447 60.2683 69.7533 60.2683C70.3619 60.2683 70.8281 60.2241 71.2036 60.1306C71.5791 60.0397 71.8769 59.8838 72.0971 59.663C72.3172 59.4422 72.4752 59.1383 72.571 58.746C72.6668 58.3564 72.716 57.8447 72.716 57.2186V56.3744H69.5901V57.0706V57.0732ZM75.109 60.1904H79.7395V59.4656H75.9092V56.8342H79.5841V56.1276H75.9092V53.6598H79.7577V52.9429H75.109V60.193V60.1904ZM85.7401 52.9403H82.306V60.1904H83.1062V57.2862H85.5562C85.8721 57.2862 86.1311 57.3251 86.3305 57.4031C86.5325 57.481 86.6827 57.6135 86.7837 57.7979C86.8847 57.9823 86.9365 58.2317 86.9365 58.546V60.1904H87.7471V58.3512C87.7471 57.481 87.369 57.0212 86.6102 56.9666C86.9832 56.8965 87.2577 56.777 87.4364 56.603C87.6151 56.4315 87.729 56.2237 87.7756 55.9873C87.8222 55.7483 87.8481 55.4392 87.8533 55.06C87.8481 54.3092 87.6746 53.7663 87.3328 53.4364C86.9909 53.1065 86.46 52.9403 85.7401 52.9403ZM86.8744 56.0808C86.7682 56.2757 86.6025 56.4133 86.3823 56.4861C86.1596 56.5614 85.8566 56.5978 85.4707 56.5978H83.1088V53.665H85.7426C86.0482 53.665 86.2943 53.7196 86.4859 53.8287C86.6776 53.9378 86.8148 54.1066 86.9029 54.3404C86.9909 54.5716 87.035 54.8703 87.035 55.2366C87.035 55.6029 86.9806 55.8886 86.8744 56.0834V56.0808ZM94.4625 59.1539L91.9167 52.9299H90.5752V60.1878H91.3754V53.5897L94.1258 60.1878H94.8199L97.5495 53.5195V60.1878H98.3497V52.9299H97.0289L94.4625 59.1539ZM103.457 52.9403L100.82 60.1904H101.691L102.271 58.6993H105.917L106.458 60.1904H107.316L104.622 52.9403H103.457ZM102.462 57.9927L104.055 53.5403L105.658 57.9927H102.465H102.462ZM115.041 59.5617L110.97 52.9403H109.696V60.1904H110.496V53.639L114.57 60.1904H115.841V52.9403H115.041V59.5617ZM128.231 56.5692C128.231 55.7665 128.184 55.1301 128.091 54.6547C127.998 54.1793 127.84 53.8131 127.617 53.5533C127.394 53.2961 127.091 53.1169 126.708 53.0182C126.325 52.9195 125.807 52.8701 125.154 52.8701C124.501 52.8701 124.015 52.9195 123.634 53.0208C123.253 53.1221 122.953 53.3013 122.733 53.5637C122.512 53.8235 122.357 54.1923 122.264 54.6703C122.171 55.1483 122.124 55.7795 122.124 56.5666C122.124 57.3537 122.171 57.9953 122.261 58.4655C122.352 58.9357 122.507 59.302 122.73 59.5643C122.953 59.8267 123.253 60.0085 123.639 60.1098C124.022 60.2111 124.532 60.2631 125.164 60.2631C125.517 60.2631 125.822 60.2553 126.076 60.2397C126.33 60.2241 126.565 60.1904 126.778 60.1384C126.99 60.0864 127.182 60.0085 127.355 59.9072C127.529 59.8059 127.689 59.6656 127.837 59.489L128.376 59.8579L128.705 59.3046L128.096 58.8889C128.187 58.6058 128.231 57.8317 128.231 56.5666V56.5692ZM127.384 58.4161L125.289 57.0342L124.921 57.6031L127.169 59.0656C127.06 59.2058 126.923 59.3097 126.76 59.3799C126.594 59.45 126.392 59.4942 126.151 59.5176C125.91 59.5409 125.579 59.5513 125.151 59.5513C124.633 59.5513 124.235 59.5124 123.955 59.437C123.673 59.3617 123.46 59.2214 123.31 59.0188C123.162 58.8136 123.061 58.5252 123.01 58.1538C122.958 57.7797 122.932 57.2524 122.932 56.5718C122.932 55.8912 122.958 55.3587 123.007 54.9794C123.056 54.6028 123.155 54.3118 123.3 54.1066C123.445 53.9014 123.657 53.7637 123.939 53.6884C124.222 53.613 124.621 53.5767 125.138 53.5767C125.656 53.5767 126.063 53.613 126.351 53.6884C126.641 53.7611 126.861 53.9014 127.016 54.1014C127.169 54.304 127.275 54.5924 127.332 54.969C127.389 55.3457 127.417 55.8782 127.417 56.5692C127.417 57.6732 127.405 58.2889 127.379 58.4161H127.384ZM135.922 58.0187C135.922 58.4759 135.873 58.811 135.772 59.0188C135.671 59.2266 135.485 59.3669 135.208 59.437C134.93 59.5072 134.488 59.5409 133.874 59.5409C133.26 59.5409 132.825 59.5072 132.55 59.437C132.276 59.3669 132.089 59.2266 131.988 59.0188C131.887 58.811 131.838 58.4785 131.838 58.0187V52.9377H131.038V58.0395C131.038 58.5564 131.1 58.9669 131.224 59.2734C131.349 59.5773 131.527 59.8007 131.763 59.9436C131.999 60.0864 132.276 60.1774 132.597 60.2163C132.918 60.2553 133.34 60.2761 133.863 60.2761C134.591 60.2761 135.145 60.2345 135.526 60.1488C135.907 60.0631 136.202 59.8631 136.409 59.5409C136.616 59.2214 136.72 58.7201 136.72 58.0395V52.9377H135.92V58.0187H135.922ZM141.752 52.9377L139.116 60.1878H139.986L140.566 58.6967H144.212L144.754 60.1878H145.611L142.917 52.9377H141.752ZM140.757 57.9901L142.35 53.5377L143.953 57.9901H140.76H140.757ZM148.812 52.9377H148.001V60.1878H152.461V59.4526H148.812V52.9377ZM154.786 60.1774H155.607V52.948H154.786V60.1774ZM157.824 53.6728H160.189V60.1878H160.999V53.6728H163.343V52.9377H157.824V53.6728ZM168.238 56.403L166.047 52.9377H165.148L167.8 57.1589V60.1878H168.611V57.1589L171.343 52.9377H170.423L168.235 56.403H168.238Z" fill="#9A9B9E"/>
<defs>
<linearGradient id="paint0_linear_1110_182" x1="120.997" y1="0" x2="120.997" y2="61.2167" gradientUnits="userSpaceOnUse">
<stop stop-color="#888A8D"/>
<stop offset="0.06" stop-color="#ACADAF"/>
<stop offset="0.21" stop-color="white"/>
<stop offset="0.35" stop-color="#BCBCBC"/>
<stop offset="0.45" stop-color="#929292"/>
<stop offset="0.5" stop-color="#828282"/>
<stop offset="0.51" stop-color="#808080"/>
<stop offset="0.72" stop-color="#5E5E5F"/>
<stop offset="0.89" stop-color="#48484A"/>
<stop offset="1" stop-color="#414143"/>
</linearGradient>
</defs>
</svg>

<svg width="242" height="62" fill="none" xmlns="http://www.w3.org/2000/svg"><path d="M30.515 0C13.665 0 0 13.703 0 30.608c0 16.906 13.664 30.609 30.515 30.609 16.852 0 30.516-13.706 30.516-30.609C61.03 13.703 47.37 0 30.516 0zm0 54.562c-13.187 0-23.88-10.724-23.88-23.954S17.328 6.655 30.515 6.655c13.188 0 23.88 10.72 23.88 23.953 0 13.233-10.69 23.954-23.88 23.954zm0-37.1c-7.238 0-13.107 5.889-13.107 13.146 0 7.258 5.869 13.147 13.107 13.147 7.239 0 13.105-5.886 13.105-13.147 0-7.26-5.866-13.146-13.104-13.146zm0 22.991c-5.42 0-9.815-4.408-9.815-9.845s4.395-9.845 9.816-9.845c5.42 0 9.812 4.406 9.812 9.845 0 5.44-4.392 9.845-9.813 9.845zm0-32.11c-12.257 0-22.197 9.968-22.197 22.265 0 12.298 9.94 22.265 22.197 22.265 12.258 0 22.197-9.967 22.197-22.265 0-12.297-9.937-22.264-22.197-22.264zm7.236 4.786a2.444 2.444 0 013.344-.9 2.457 2.457 0 01.896 3.354 2.446 2.446 0 01-3.344.9 2.46 2.46 0 01-.896-3.354zm7.987 17.48c0 8.434-6.816 15.271-15.225 15.271-8.41 0-15.226-6.837-15.226-15.272 0-8.434 6.817-15.271 15.226-15.271s15.225 6.837 15.225 15.271zM30.515 9.384a2.45 2.45 0 012.448 2.455 2.45 2.45 0 01-2.448 2.455 2.45 2.45 0 01-2.447-2.455 2.45 2.45 0 012.447-2.455zM19.934 12.23a2.443 2.443 0 013.343.896 2.459 2.459 0 01-.896 3.354 2.444 2.444 0 01-3.343-.9 2.46 2.46 0 01.896-3.353v.003zM12.187 20a2.444 2.444 0 013.347-.9 2.46 2.46 0 01.893 3.354 2.444 2.444 0 01-3.343.9A2.46 2.46 0 0112.188 20zM9.352 30.614a2.45 2.45 0 012.447-2.455 2.452 2.452 0 012.447 2.455 2.453 2.453 0 01-2.447 2.454 2.455 2.455 0 01-2.45-2.454h.003zm6.179 11.512a2.443 2.443 0 01-3.344-.898 2.46 2.46 0 01.897-3.354 2.444 2.444 0 013.343.899 2.46 2.46 0 01-.893 3.353h-.003zm7.743 5.973a2.445 2.445 0 01-3.343.896 2.462 2.462 0 01-.899-3.354 2.447 2.447 0 013.346-.899 2.459 2.459 0 01.896 3.354v.003zm7.239 3.74a2.45 2.45 0 01-2.448-2.455 2.45 2.45 0 012.448-2.455 2.45 2.45 0 012.447 2.455 2.45 2.45 0 01-2.447 2.455zm10.58-2.842a2.445 2.445 0 01-3.344-.896 2.459 2.459 0 01.896-3.353 2.443 2.443 0 013.343.896 2.459 2.459 0 01-.896 3.353zm7.748-7.77a2.446 2.446 0 01-3.346.902 2.461 2.461 0 01-.896-3.354 2.444 2.444 0 013.343-.898 2.463 2.463 0 01.899 3.353v-.002zm2.833-10.61a2.45 2.45 0 01-2.447 2.454 2.453 2.453 0 01-2.448-2.455 2.45 2.45 0 012.448-2.455 2.452 2.452 0 012.447 2.455zm-2.836-10.615a2.46 2.46 0 01-.896 3.356 2.447 2.447 0 01-3.343-.901 2.46 2.46 0 01.896-3.354 2.444 2.444 0 013.343.9zM162.535 47.32V30.78c0-6.616-3.297-9.922-9.893-9.922h-9.893V11.23h-6.596v36.084h6.596V27.468h9.893c2.199 0 3.297 1.101 3.297 3.307v16.539h6.596v.005zm45.886-36.09h-6.596v9.623h-6.345v6.616h6.345v19.846h6.596V27.468h4.154l2.934-6.616h-7.088V11.23zm33.576 9.623h-21.21l-2.934 6.616h13.772l-16.007 13.23v6.616H242v-6.616h-16.007L242 27.468v-6.616h-.003zM91.79 25.662H77.4c-2.397 0-3.596-1.202-3.596-3.608 0-2.405 1.199-3.608 3.597-3.608h18.942l3.2-7.216H77.402c-7.194 0-10.792 3.608-10.792 10.824 0 7.217 3.598 10.825 10.792 10.825H91.79c2.398 0 3.597 1.203 3.597 3.608 0 2.405-1.2 3.608-3.597 3.608H66.293v7.216H91.79c7.194 0 10.791-3.608 10.791-10.824 0-7.216-3.597-10.825-10.791-10.825zm40.771 15.036h-16.489c-2.199 0-3.297-1.102-3.297-3.307v-6.616c0-2.206 1.098-3.307 3.297-3.307h13.684l2.805-6.323v-.293h-16.489c-6.597 0-9.893 3.306-9.893 9.923v6.616c0 6.616 3.296 9.923 9.893 9.923h16.489v-6.616zm50.063-19.846h-12.112l-2.935 6.616h15.047c2.199 0 3.297 1.083 3.297 3.247v.06h-11.512c-5.516 0-8.274 2.706-8.274 8.117 0 5.411 2.758 8.42 8.274 8.42h18.108v-16.54c0-6.616-3.297-9.923-9.893-9.923v.003zm3.297 19.846h-11.512c-1.119 0-1.678-.561-1.678-1.684 0-1.122.559-1.623 1.678-1.623h11.512v3.307z" fill="url(#paint0_linear_1110_182)"/><path d="M69.59 57.073h2.315v.263c0 .59-.06 1.039-.176 1.353a1.136 1.136 0 01-.637.67c-.308.135-.756.2-1.35.2-.445 0-.805-.039-1.076-.12a1.207 1.207 0 01-.645-.433c-.158-.21-.272-.504-.34-.886-.067-.382-.1-.894-.1-1.533 0-.639.033-1.15.1-1.537.068-.385.18-.686.337-.902.158-.213.37-.364.64-.447.27-.083.632-.124 1.082-.124.612 0 1.062.041 1.355.124.29.084.492.226.6.429.11.205.18.517.21.938h.782c-.046-.574-.14-1.008-.282-1.304-.142-.296-.414-.52-.82-.668-.405-.148-1.021-.223-1.842-.223-.6 0-1.09.062-1.471.187a1.822 1.822 0 00-.896.61c-.22.283-.376.657-.466 1.128-.093.47-.138 1.067-.138 1.792 0 .725.044 1.327.135 1.792.09.465.244.834.459 1.11.215.275.515.475.898.594.383.123.88.182 1.49.182.608 0 1.074-.044 1.45-.137.375-.091.673-.247.893-.468.22-.22.378-.525.474-.917.096-.39.145-.901.145-1.527v-.845H69.59v.699zm5.519 3.117h4.63v-.724h-3.83v-2.632h3.675v-.706H75.91V53.66h3.849v-.717H75.11v7.25-.003zm10.631-7.25h-3.434v7.25h.8v-2.904h2.45c.316 0 .575.04.775.117a.85.85 0 01.453.395c.1.184.152.434.152.748v1.644h.811v-1.839c0-.87-.378-1.33-1.137-1.384.373-.07.648-.19.826-.364.18-.172.293-.38.34-.616.046-.239.072-.548.077-.927-.005-.75-.178-1.294-.52-1.624-.342-.33-.873-.496-1.593-.496zm1.134 3.14a.844.844 0 01-.492.406c-.222.075-.525.112-.911.112h-2.362v-2.933h2.634c.305 0 .551.055.743.164a.94.94 0 01.417.511c.088.232.132.53.132.897 0 .366-.054.652-.16.846v-.002zm7.589 3.074l-2.546-6.224h-1.342v7.258h.8V53.59l2.75 6.598h.695l2.73-6.669v6.669h.8V52.93h-1.321l-2.566 6.224zm8.994-6.214l-2.637 7.25h.871l.58-1.49h3.646l.541 1.49h.858l-2.694-7.25h-1.165zm-.995 5.053l1.593-4.453 1.603 4.453h-3.196zm12.579 1.569l-4.071-6.622h-1.274v7.25h.8v-6.55l4.074 6.551h1.271v-7.25h-.8v6.622zm13.19-2.993c0-.803-.047-1.439-.14-1.914-.093-.476-.251-.842-.474-1.102-.223-.257-.526-.436-.909-.535-.383-.099-.901-.148-1.554-.148s-1.139.05-1.52.15c-.381.102-.681.281-.901.544-.221.26-.376.628-.469 1.106-.093.478-.14 1.11-.14 1.897 0 .787.047 1.428.137 1.898.091.47.246.837.469 1.1.223.262.523.444.909.545.383.101.893.153 1.525.153.353 0 .658-.008.912-.023.254-.016.489-.05.702-.102.212-.052.404-.13.577-.23.174-.102.334-.242.482-.419l.539.369.329-.553-.609-.416c.091-.283.135-1.057.135-2.322v.002zm-.847 1.847l-2.095-1.382-.368.57 2.248 1.462a1.02 1.02 0 01-.409.314c-.166.07-.368.114-.609.138-.241.023-.572.033-1 .033-.518 0-.916-.039-1.196-.114a1.135 1.135 0 01-.645-.418c-.148-.205-.249-.494-.3-.865-.052-.374-.078-.902-.078-1.582s.026-1.213.075-1.593c.049-.376.148-.667.293-.872.145-.206.357-.343.639-.419.283-.075.682-.111 1.199-.111.518 0 .925.036 1.213.111.29.073.51.213.665.413.153.203.259.491.316.868.057.377.085.91.085 1.6 0 1.104-.012 1.72-.038 1.847h.005zm8.538-.397c0 .457-.049.792-.15 1-.101.208-.287.348-.564.418-.278.07-.72.104-1.334.104-.614 0-1.049-.034-1.324-.104-.274-.07-.461-.21-.562-.418-.101-.208-.15-.54-.15-1v-5.081h-.8v5.101c0 .517.062.928.186 1.234.125.304.303.528.539.67.236.143.513.234.834.273.321.04.743.06 1.266.06.728 0 1.282-.042 1.663-.127a1.36 1.36 0 00.883-.608c.207-.32.311-.82.311-1.502v-5.101h-.8v5.08h.002zm5.83-5.081l-2.636 7.25h.87l.58-1.491h3.646l.542 1.49h.857l-2.694-7.25h-1.165zm-.995 5.052l1.593-4.452 1.603 4.452h-3.196zm8.055-5.052h-.811v7.25h4.46v-.735h-3.649v-6.515zm5.974 7.24h.821v-7.23h-.821v7.23zm3.038-6.505h2.365v6.515h.81v-6.515h2.344v-.735h-5.519v.735zm10.414 2.73l-2.191-3.465h-.899l2.652 4.22v3.03h.811v-3.03l2.732-4.22h-.92l-2.188 3.465h.003z" fill="#9A9B9E"/><defs><linearGradient id="paint0_linear_1110_182" x1="120.997" y1="0" x2="120.997" y2="61.217" gradientUnits="userSpaceOnUse"><stop stop-color="#888A8D"/><stop offset=".06" stop-color="#ACADAF"/><stop offset=".21" stop-color="#fff"/><stop offset=".35" stop-color="#BCBCBC"/><stop offset=".45" stop-color="#929292"/><stop offset=".5" stop-color="#828282"/><stop offset=".51" stop-color="gray"/><stop offset=".72" stop-color="#5E5E5F"/><stop offset=".89" stop-color="#48484A"/><stop offset="1" stop-color="#414143"/></linearGradient></defs></svg>
